X:1
T:Bramo morir
T:Costanzo Festa
T:Bramo morir
C:Costanzo Festa
%%score [ 1 2 3 4 ]
L:1/8
Q:1/4=108
M:2/2
K:D
V:1 treble nm="Soprano" snm="S"
V:2 treble nm="Alto" snm="A"
V:3 treble-8 nm="Tenor" snm="T"
V:4 bass nm="Bass" snm="B"
V:1
 B8 | d4 d4 | c8 | z2 A2 A2 A2 | B6 A2 | G4 F4 | z2 F4 F2 | F4 G4 | A4 B4 | B4 A4 | A4 B4- | %11
w: Bra-|mo mo-|rir|per non pa-|tir più|mor- te|E de-|si- dro|che'l mio|tan- to|do- lo-|
 B4 ^A4- | A4 z4 | z4 c4 | d2 B2 c4 | F2 F2 B4- | B2 B2 A4- | A4 G4 | F8 | F8 | z2 d4 c2 | B4 A4- | %22
w: * re|_|Ca-|vi que- st'al-|ma o- mai|_ del cor-|* po|fo-|re|Tal che|di me|
 A4 d4- | d2 d2 c4 | B4 ^A4 | B6 ^A^G | ^A4 B4- | B8 | d6 d2 | d4 c4 | A4 B4- | B4 A4 | A6 G2 | %33
w: _ più|_ non ri-|da mia|sor- * *|* te.|_|Me- co|spes- so|mi dol-|* go|di mia|
 F4 F4 | z2 D4 D2 | D2 D2 E2 F2 | G2 A2 B2 c2 | d3 c/d/ cB B2- | B2 ^A2 B2 F2 | F2 F2 G2 F2 | %40
w: do- glia|Do- glio-|mi che for- tu-|na o- mai non|vo- * * * * *|* * glia Trar|que- st'al- ma d'af-|
 G4 F4 | F4 A2 G2 | F4 D4- | D4 z4 | z2 d2 c2 A2 | B2 B2 A2 A2 | B4 A2 F2 | G4 F4- | F4 z4 | z8 | %50
w: fan- ni|e d'e- sta|spo- glia.|_|Ma poi che|m'è con- ces- so|il vo' pur|di- re,|_||
 z2 c2 d3 c/B/ | d2 c3 B B2- | B2 ^A2 B4 | d4 d2 c2- | cB B4 ^A2 | B3 A GF G2- | G2 F4 E2 | F8- | %58
w: Che ben _ _|_ può _ nul-|* * la|chi non può|_ _ _ mo-|ri- * * * *||re.|
 F8- | F8- | F8 |] %61
w: _|||
V:2
 F8 | B4 B4 | A8 | z2 F2 F2 F2 | G6 F2 | E4 D4 | z2 D4 D2 | D4 E4 | F4 D4- | D2 E2 F4 | F8 | %11
w: Bra-|mo mo-|rir|per non pa-|tir più|mor- te|E de-|si- dro|che'l mio|_ tan- to|do-|
 E4 F4- | F4 z4 | z4 z2 F2- | F2 G2 E2 F2- | F2 D2 D4- | D2 E2 F2 F2 | F4 E4 | C8 | D2 B,4 C2 | %20
w: lo- re|_|Ca-|* vi que- st'al-|* ma~o mai|_ del cor- po|fo- re|Tal|che di _|
 D2 F4 F2 | D2 E2 F4- | F4 A4- | A2 A2 A4 | G4 F2 F2- | F2 E2 F4- | F8- | F8 | F6 F2 | F4 F4 | %30
w: me Tal che|di _ me|_ più|_ non ri-|da mia sor-|* * te.|_||Me- co|spes- so|
 F4 D4- | D2 E2 F4 | F6 E2 | C4 D4 | z2 B,4 B,2 | B,2 B,2 B,2 D2 | D2 F2 G2 G2 | A4 G4 | F4 z2 D2 | %39
w: mi dol-|* * go|di mia|do- glia|Do- glio-|mi che for- tu-|na o- mai non|vo- *|glia. Trar|
 D2 D2 E2 D2 | E4 D4 | D4 F2 E2 | C4 B,4- | B,4 z2 F2 | F2 D2 E2 F2 | D3 E F2 F2 | D2 E3 D D2- | %47
w: que- st'al- ma d'af-|fan- ni|e d'e- sta|spo- glia.|_ Ma|poi che m'è con-|ces- * so il|vo' pur _ di-|
 D2 C2 D4 | z2 C2 D3 C/B,/ | D2 C4 B,2- | B,2 ^A,2 B,2 F2- | F2 E2 G4 | F4 D4 | B4 A2 A2 | F4 F4 | %55
w: * * re,|Che ben _ _|_ può nul-|* * la Che|_ ben può|nul- la|chi non può|mo- ri-|
 D2 E4 E2 | D2 D2 B,4 | B,4 z2 D2- | D2 D2 D2 C2 | B,4 ^A,4- | A,8 |] %61
w: re, chi non|può mo- ri-|re, chi|_ non può mo-|ri- re.|_|
V:3
 d8 | g4 g4 | e8 | z2 d2 d2 d2 | d6 d2 | B4 B4 | z2 B4 B2 | B4 B4 | d4 B4 | B4 c4 | c2 d3 cBA | %11
w: Bra-|mo mo-|rir|per non pa-|tir più|mor- te|E de-|si- dro|che'l mio|tan- to|do- lo- * * *|
 B4 c4 | z2 c4 d2 | B2 c4 F2- | F2 B4 ^A2 | B4 B4 | B4 c4 | d3 c BA B2- | B2 ^A^G A4 | B2 d4 c2 | %20
w: * re|Ca- vi|que- st'al- ma~o|_ mai _|_ del|cor- po|fo- * * * *||re Tal che|
 B4 A4 | B4 c4- | c4 f4- | f2 f2 e4 | d4 c4 | B4 c4- | c4 B4- | B8 | B6 B2 | B4 A3 B | c2 d3 cBA | %31
w: di me|_ _|* più|_ non ri-|da mia|_ sor-|* te.|_|Me- co|spes- so _|_ mi _ _ _|
 B4 c4 | d4 d2 B2- | B2 ^A2 B4 | z2 F4 F2 | F2 F2 G2 A2 | B2 d2 d2 e2 | f4 e3 d | cB c2 B2 B2 | %39
w: dol- go|di mia do-|* * glia|Do- glio-|mi che for- tu-|na o- mai non|vo- * *|* * * glia Trar|
 B2 B2 B2 B2 | B4 B4 | A4 F2 G2 | A4 F4 | z2 f2 e2 d2 | d2 B2 c2 c2 | z2 B2 c2 d2 | B3 A/G/ A2 B2 | %47
w: que- st'al- ma d'af-|fan- ni|e d'e- sta|spo- glia.|Ma poi che|m'è con- ces- so|il vo' pur|di- * * re, il|
 G4 A2 B2- | B2 ^A2 B2 =A2 | A4 G4 | E4 F3 G | AB c2 d2 e2 | c4 B4 | f4 f2 e2 | d4 c4 | B2 B4 B2 | %56
w: vo' pur di-|* * re, Che|ben può|nul- la _|_ _ Che ben può|nul- la|chi non può|mo- ri-|re, chi non|
 B2 A2 G4 | F6 B2- | B2 B2 A2 A2 | d4 c4- | c8 |] %61
w: può mo- ri-|re, chi|_ non può mo-|ri- re.|_|
V:4
 B,8 | G,4 G,4 | A,8 | z2 D,2 D,2 D,2 | G,6 D,2 | E,4 B,,4 | z2 B,,4 B,,2 | B,,4 E,4 | D,4 G,4 | %9
w: Bra-|mo mo-|rir|per non pa-|tir più|mor- te|E de-|si- dro|che'l mio|
 G,4 F,4 | F,4 G,4- | G,4 F,4- | F,4 F,4 | G,2 E,2 F,4 | B,,4 z2 F,2 | B,6 A,2 | G,4 F,4 | %17
w: tan- to|do- lo-|* re|_ Ca-|vi que- st'al-|ma o-|mai del|cor- po|
 D,4 E,4 | F,8 | z2 B,,4 A,,2 | B,,C,D,E, F,4 | G,4 F,4- | F,4 D,4- | D,2 D,2 A,4 | B,4 F,4 | %25
w: fo- *|re|Tal che|di _ _ _ _|_ me|_ più|_ non ri-|da mia|
 G,4 F,4- | F,4 B,,4- | B,,8 | B,,6 B,,2 | B,,4 F,4 | F,4 G,4- | G,4 F,4 | D,6 E,2 | F,4 B,,4 | %34
w: _ sor-|* te.|_|Me- co|spes- so|mi dol-|* go|di mia|do- glia|
 z2 B,,4 B,,2 | B,,2 B,,2 E,2 D,2 | G,2 D,2 G,2 E,2 | D,4 E,4 | F,4 z2 B,,2 | B,,2 B,,2 E,2 B,,2 | %40
w: Do- glio-|mi che for- tu-|na o- mai non|vo- *|glia. Trar|que- st'al- ma d'af-|
 E,4 B,,4 | D,6 E,2 | F,4 B,,4- | B,,4 z4 | z2 B,2 A,2 F,2 | G,2 G,2 F,2 F,2 | G,4 F,2 D,2 | %47
w: fan- ni|d'e- sta|spo- glia.|_|Ma poi che|m'è con- ces- so|il vo' pur|
 E,4 D,2 B,,2 | F,4 z2 F,2 | F,4 E,3 D, | C,4 B,,C,D,E, | F,G, A,2 B,2 E,2 | F,4 z2 B,2- | %53
w: di- * *|re, Che|ben può _|nul- * * * *||la chi|
 B,2 B,2 D2 A,2 | B,4 F,4 | z2 E,4 E,2 | G,2 D,2 E,4 | B,,4 z2 B,,2- | B,,2 B,,2 D,2 A,,2 | %59
w: _ non può mo-|ri- re,|chi non|può mo- ri-|re, chi|_ non può mo-|
 B,,4 F,4- | F,8 |] %61
w: ri- re.|_|

